Dominus_Dark_Funeral/22/apps/darktable.svg

<svg xmlns="http://www.w3.org/2000/svg" width="24" height="24" viewBox="0 0 6.35 6.35"><path d="M6.06 3.18a2.88 2.88 0 0 1-2.88 2.88A2.88 2.88 0 0 1 .29 3.18 2.88 2.88 0 0 1 3.18.29a2.88 2.88 0 0 1 2.88 2.89z" fill="#e6e6e6"/><path d="M3.72.62l-.64 1.8 2.53-.41A2.7 2.7 0 0 0 3.72.62z" fill="#1a1a1a" opacity=".4"/><path d="M5.69 2.37l-1.9.35 1.63 1.95c.43-.67.55-1.52.27-2.3z" fill="#1a1a1a" opacity=".5"/><path d="M5.14 4.92L3.88 3.47l-.9 2.37c.81.03 1.62-.3 2.16-.92z" fill="#1a1a1a" opacity=".65"/><path d="M2.63 5.73l.64-1.8-2.53.41a2.7 2.7 0 0 0 1.89 1.39z" fill="#1a1a1a" opacity=".8"/><path d="M.66 3.98l1.9-.35L.94 1.68a2.63 2.63 0 0 0-.27 2.3z" fill="#1a1a1a" opacity=".9"/><path d="M1.2 1.43l1.27 1.45.9-2.37c-.81-.03-1.62.3-2.16.92z" fill="#1a1a1a" opacity=".2"/></svg>

<?xml version="1.0" encoding="UTF-8" standalone="no"?>
<svg
   xmlns:dc="http://purl.org/dc/elements/1.1/"
   xmlns:cc="http://creativecommons.org/ns#"
   xmlns:rdf="http://www.w3.org/1999/02/22-rdf-syntax-ns#"
   xmlns:svg="http://www.w3.org/2000/svg"
   xmlns="http://www.w3.org/2000/svg"
   xmlns:sodipodi="http://sodipodi.sourceforge.net/DTD/sodipodi-0.dtd"
   xmlns:inkscape="http://www.inkscape.org/namespaces/inkscape"
   width="24"
   height="24"
   viewBox="0 0 6.35 6.35"
   version="1.1"
   id="svg16"
   sodipodi:docname="darktable.svg"
   inkscape:version="0.92.4 (5da689c313, 2019-01-14)">
  <metadata
     id="metadata22">
    <rdf:RDF>
      <cc:Work
         rdf:about="">
        <dc:format>image/svg+xml</dc:format>
        <dc:type
           rdf:resource="http://purl.org/dc/dcmitype/StillImage" />
        <dc:title></dc:title>
      </cc:Work>
    </rdf:RDF>
  </metadata>
  <defs
     id="defs20" />
  <sodipodi:namedview
     pagecolor="#ffffff"
     bordercolor="#666666"
     borderopacity="1"
     objecttolerance="10"
     gridtolerance="10"
     guidetolerance="10"
     inkscape:pageopacity="0"
     inkscape:pageshadow="2"
     inkscape:window-width="1142"
     inkscape:window-height="480"
     id="namedview18"
     showgrid="false"
     inkscape:zoom="9.8333333"
     inkscape:cx="1.2711864"
     inkscape:cy="12"
     inkscape:window-x="0"
     inkscape:window-y="25"
     inkscape:window-maximized="0"
     inkscape:current-layer="svg16" />
  <path
     d="M 6.06,3.18 A 2.88,2.88 0 0 1 3.18,6.06 2.88,2.88 0 0 1 0.29,3.18 2.88,2.88 0 0 1 3.18,0.29 2.88,2.88 0 0 1 6.06,3.18 Z"
     id="path2"
     inkscape:connector-curvature="0"
     style="fill:#e6e6e6" />
  <path
     d="M 3.72,0.62 3.08,2.42 5.61,2.01 A 2.7,2.7 0 0 0 3.72,0.62 Z"
     id="path4"
     inkscape:connector-curvature="0"
     style="opacity:0.4;fill:#1a1a1a" />
  <path
     d="M 5.69,2.37 3.79,2.72 5.42,4.67 C 5.85,4 5.97,3.15 5.69,2.37 Z"
     id="path6"
     inkscape:connector-curvature="0"
     style="opacity:0.5;fill:#1a1a1a" />
  <path
     d="M 5.14,4.92 3.88,3.47 2.98,5.84 C 3.79,5.87 4.6,5.54 5.14,4.92 Z"
     id="path8"
     inkscape:connector-curvature="0"
     style="opacity:0.65;fill:#1a1a1a" />
  <path
     d="M 2.63,5.73 3.27,3.93 0.74,4.34 a 2.7,2.7 0 0 0 1.89,1.39 z"
     id="path10"
     inkscape:connector-curvature="0"
     style="opacity:0.8;fill:#1a1a1a" />
  <path
     d="M 0.66,3.98 2.56,3.63 0.94,1.68 a 2.63,2.63 0 0 0 -0.27,2.3 z"
     id="path12"
     inkscape:connector-curvature="0"
     style="opacity:0.9;fill:#1a1a1a" />
  <path
     d="M 1.2,1.43 2.47,2.88 3.37,0.51 C 2.56,0.48 1.75,0.81 1.21,1.43 Z"
     id="path14"
     inkscape:connector-curvature="0"
     style="opacity:0.2;fill:#1a1a1a" />
</svg>
